src/images/icons/question.svg

<svg width="32" height="32" viewBox="0 0 32 32" xmlns="http://www.w3.org/2000/svg">
  <path d="M16.5 26H15c-1 0-2 .8-2 2v2c0 1 1 2 2 2h1.5c1 0 2-1 2-2v-2c0-1.2-1-2-2-2zM5.7 9.4l2.8.3c1 .2 1.8-.4 2-1.2.5-1 1-2 1.8-2.6 1-1 2.3-1.5 4-1.5 1.5 0 2.7.5 3.7 1.3 1 .7 1.4 1.7 1.4 3 0 .8-.3 1.5-.8 2.2-.4.5-1.5 1.4-3.3 3-1.7 1.3-3 2.6-3.5 3.7-.6 1-.8 2.4-1 3.7 0 1.2 1 2 2 2h2c1 0 1.7-.7 2-1.7V20c.4-.6 1-1.5 2.5-2.5 2.5-2 4-3.7 5-5 .6-1 1-2.4 1-3.7 0-2.3-1-4.4-3-6.3-2-1.5-5-2.5-8.6-2.5-3.3 0-6 1-8 2.7C6.2 4.2 5 6 4.7 8c0 .7.3 1.3 1 1.4z"/>
</svg>

<svg width="32" height="32" viewBox="0 0 32 32" xmlns="http://www.w3.org/2000/svg">
  <path d="M 16.5 26 L 15 26 C 14 26 13 26.8 13 28 L 13 30 C 13 31 14 32 15 32 L 16.5 32 C 17.5 32 18.5 31 18.5 30 L 18.5 28 C 18.5 26.8 17.5 26 16.5 26 Z M 5.7 9.4 L 8.5 9.7 C 9.5 9.9 10.3 9.3 10.5 8.5 C 11 7.5 11.5 6.5 12.3 5.9 C 13.3 4.9 14.6 4.5 16.3 4.5 C 17.8 4.5 19 5 20 5.8 C 21 6.5 21.4 7.5 21.4 8.8 C 21.4 9.6 21.1 10.3 20.6 11 C 20.2 11.5 19.1 12.4 17.3 14 C 15.6 15.3 14.3 16.6 13.8 17.7 C 13.2 18.7 13 20.1 12.8 21.4 C 12.8 22.6 13.8 23.4 14.8 23.4 L 16.7 23.4 C 17.7 23.4 18.5 22.7 18.7 21.7 C 18.7 21 18.7 20.4 18.9 20 C 19.2 19.4 19.9 18.5 21.3 17.5 C 23.8 15.5 25.3 13.8 26.3 12.5 C 26.9 11.5 27.3 10.1 27.3 8.8 C 27.3 6.5 26.3 4.4 24.3 2.5 C 22.2 1 19.2 0 15.7 0 C 12.4 0 9.7 1 7.7 2.7 C 6.2 4.2 5.1 6 4.7 8 C 4.7 8.7 5 9.3 5.7 9.4 Z"/>
</svg>
